(G-CODE GENERATED BY FLATCAM v8.97 - www.flatcam.org - Version Date: 2019/09/27)

(Name: RGB_lamp)
(Type: G-code from Geometry)
(Units: IN)

(Made by Maxim Bortnikov)
(For more information visit https://github.com/Northstrix/WS2812-based_RGB_lamp)

(Feedrate: 3.1496 in/min)
(Feedrate_Z: 3.1496 in/min)
(Feedrate rapids 3.1496 in/min)

(Z_Cut: -0.0945 in)
(Z_Move: 0.0787 in)
(Z Toolchange: 0.5 in)
(X,Y Toolchange: 0.0000, 0.0000 in)
(Z Start: None in)
(Z End: 0.5 in)
(Steps per circle: 128)
(Postprocessor Geometry: default)

(X range:   -0.0000 ...    4.5000  in)
(Y range:   -0.0000 ...    4.5000  in)

(Spindle Speed: None RPM)

G20
G90
G94

G01 F3.15
G00 Z0.0787

M03
G00 X-0.0000 Y-0.0000
G01 F3.15
G01 Z-0.0945
G01 F3.15
G01 X-0.0000 Y4.5000
G01 X4.5000 Y4.5000
G01 X4.5000 Y-0.0000
G01 X-0.0000 Y-0.0000
G00 Z0.0787
M05
G00 Z0.0787
G00 Z0.50
G00 X0.0 Y0.0

M02